motocrosskursk/img/icons/phone.svg

<svg width="17" height="16" viewBox="0 0 17 16" fill="none" xmlns="http://www.w3.org/2000/svg">
<path fill-rule="evenodd" clip-rule="evenodd" d="M2.19058 2.35823C3.07058 1.43123 3.38158 1.17123 3.75658 1.05023C4.0161 0.982226 4.28827 0.97845 4.54958 1.03923C4.89358 1.13923 4.98458 1.21523 6.11258 2.33923C7.10358 3.32623 7.20258 3.43323 7.29758 3.62623C7.47923 3.965 7.50761 4.36521 7.37558 4.72623C7.27558 5.00123 7.13358 5.18323 6.53258 5.78623L6.14058 6.17923C6.03763 6.28385 6.01344 6.44271 6.08058 6.57323C6.95151 8.05909 8.18715 9.29816 9.67058 10.1732C9.84133 10.2647 10.0516 10.2351 10.1906 10.1002L10.5676 9.72923C10.8006 9.49038 11.0473 9.26533 11.3066 9.05523C11.7137 8.80524 12.221 8.78294 12.6486 8.99623C12.8576 9.09623 12.9266 9.15823 13.9486 10.1782C15.0026 11.2292 15.0326 11.2622 15.1486 11.5032C15.3669 11.9022 15.3646 12.3853 15.1426 12.7822C15.0296 13.0062 14.9606 13.0872 14.3676 13.6932C14.0096 14.0592 13.6726 14.3932 13.6186 14.4422C13.1294 14.8473 12.5017 15.046 11.8686 14.9962C10.7101 14.8906 9.58884 14.5326 8.58358 13.9472C6.35671 12.7674 4.46098 11.0484 3.06958 8.94723C2.76652 8.5075 2.49709 8.04552 2.26358 7.56523C1.63716 6.4916 1.31368 5.26816 1.32758 4.02523C1.3754 3.37499 1.68723 2.77265 2.19058 2.35823Z" stroke="#F4510C" stroke-width="1.5" stroke-linecap="round" stroke-linejoin="round"/>
</svg>

<svg width="17" height="16" fill="none" xmlns="http://www.w3.org/2000/svg"><path clip-rule="evenodd" d="M2.19 2.358c.88-.927 1.192-1.187 1.567-1.308.26-.068.531-.072.793-.01.344.1.435.175 1.563 1.3.99.986 1.09 1.093 1.185 1.286.181.339.21.74.078 1.1-.1.275-.242.457-.843 1.06l-.392.393a.34.34 0 00-.06.394 10.123 10.123 0 003.59 3.6c.17.092.38.062.52-.073l.377-.37c.233-.24.48-.465.739-.675.407-.25.914-.272 1.342-.059.209.1.278.162 1.3 1.182 1.054 1.051 1.084 1.084 1.2 1.325.218.4.216.882-.006 1.28-.113.223-.182.304-.775.91-.358.366-.695.7-.75.75a2.443 2.443 0 01-1.75.553 7.964 7.964 0 01-3.284-1.049 15.082 15.082 0 01-5.514-5c-.303-.44-.573-.901-.806-1.382a6.872 6.872 0 01-.936-3.54c.047-.65.36-1.252.863-1.667z" stroke="#F4510C" stroke-width="1.5" stroke-linecap="round" stroke-linejoin="round"/></svg>
